static/icons/immutable_data_science.svg

<svg width="20" height="20" viewBox="0 0 20 20" fill="none" xmlns="http://www.w3.org/2000/svg">
<path d="M12.9706 5.89822H7.02935V7.02934H6.44226V8.19959H7.02935V9.40898H6.44226V10.5792H7.02935V11.7886H6.44226V12.9589H7.02935V14.09H12.9667V12.9589H13.5538V11.7886H12.9667V10.5792H13.5538V9.40898H12.9667V8.19959H13.5538V7.02934H12.9667V5.89822H12.9706ZM11.7965 10.5871H8.20351V9.41681H11.7965V10.5871ZM11.7965 12.9315H8.20351V11.7612H11.7965V12.9315ZM8.20351 8.24264V7.07239H11.7965V8.24264H8.20351Z" fill="white"/>
<path d="M19.6673 12.2427C19.4716 11.499 19.1937 10.7436 18.8454 9.99609C20.0548 7.40509 20.3523 4.85323 19.5382 2.94325C19.8239 2.63014 20 2.21526 20 1.75734C20 0.786693 19.2133 0 18.2427 0C17.7887 0 17.3699 0.176125 17.0568 0.46184C15.1468 -0.35225 12.5949 -0.0547945 10.0039 1.1546C9.25636 0.802348 8.50098 0.528376 7.75734 0.332681C5.11546 -0.360078 2.88063 0.0391389 1.45988 1.45988C0.0391389 2.88063 -0.360078 5.11546 0.332681 7.75734C0.528376 8.50098 0.806262 9.25636 1.1546 10.0039C-0.0547945 12.5949 -0.35225 15.1468 0.46184 17.0568C0.176125 17.3699 0 17.7847 0 18.2427C0 19.2133 0.786693 20 1.75734 20C2.21135 20 2.63014 19.8239 2.94325 19.5382C3.66732 19.8474 4.48141 19.9961 5.35812 19.9961C6.79061 19.9961 8.38748 19.5969 9.99609 18.8454C10.7436 19.1977 11.499 19.4716 12.2427 19.6673C13.0881 19.8904 13.8943 20 14.6458 20C16.2348 20 17.5773 19.5068 18.544 18.5401C19.9609 17.1194 20.3601 14.8845 19.6673 12.2427ZM18.2387 1.17417C18.5636 1.17417 18.8258 1.4364 18.8258 1.76125C18.8258 2.08219 18.5636 2.34834 18.2387 2.34834C17.9139 2.34834 17.6517 2.08611 17.6517 1.76125C17.6556 1.4364 17.9178 1.17417 18.2387 1.17417ZM11.8474 1.67123C13.6438 1.06849 15.2759 1.0137 16.501 1.49902C16.4892 1.58513 16.4814 1.67123 16.4814 1.75734C16.4814 2.72798 17.2681 3.51468 18.2387 3.51468C18.3249 3.51468 18.411 3.50685 18.4971 3.49511C18.9863 4.72407 18.9276 6.35225 18.3249 8.14873C18.2661 8.31703 18.2074 8.48924 18.1409 8.65753C17.3581 7.3229 16.3483 6.02348 15.1585 4.83366C13.9687 3.64384 12.6693 2.63405 11.3346 1.85127C11.5068 1.79256 11.6751 1.72994 11.8474 1.67123ZM17.5421 9.99609C16.7632 11.5068 15.6595 13.002 14.3327 14.3288C13.002 15.6556 11.5108 16.7593 10 17.5382C8.49706 16.7632 7.0137 15.6712 5.67515 14.3288C4.33268 12.9863 3.2407 11.5068 2.46575 10C3.24462 8.48924 4.34834 6.99413 5.67515 5.66732C7.00587 4.34051 8.49706 3.23679 10.0078 2.45793C11.5108 3.23288 12.9941 4.32485 14.3327 5.66732C15.6712 7.00978 16.7671 8.49315 17.5421 9.99609ZM1.4638 7.45988C0.880626 5.23679 1.17417 3.40117 2.28963 2.28963C3.02935 1.5499 4.08611 1.17417 5.36204 1.17417C6.00783 1.17417 6.71233 1.27202 7.4638 1.46771C7.86301 1.57339 8.27006 1.70646 8.67319 1.86301C7.35421 2.63796 6.05088 3.63992 4.8454 4.8454C3.63992 6.05088 2.63796 7.35421 1.86301 8.67319C1.70254 8.26614 1.56947 7.8591 1.4638 7.45988ZM1.76125 18.8258C1.4364 18.8258 1.17417 18.5636 1.17417 18.2387C1.17417 17.9139 1.4364 17.6517 1.76125 17.6517C2.08611 17.6517 2.34834 17.9139 2.34834 18.2387C2.34442 18.5636 2.08219 18.8258 1.76125 18.8258ZM8.15264 18.3288C6.35616 18.9315 4.72407 18.9863 3.49902 18.501C3.51076 18.4149 3.51859 18.3288 3.51859 18.2427C3.51859 17.272 2.7319 16.4853 1.76125 16.4853C1.67515 16.4853 1.58904 16.4932 1.50294 16.5049C1.0137 15.2759 1.07241 13.6477 1.67515 11.8513C1.73386 11.683 1.79256 11.5108 1.8591 11.3425C2.64188 12.6771 3.65166 13.9765 4.84149 15.1663C6.03131 16.3562 7.33072 17.3659 8.66536 18.1487C8.49315 18.2074 8.32485 18.2701 8.15264 18.3288ZM17.7104 17.7104C16.5949 18.8258 14.7593 19.1155 12.5401 18.5323C12.1409 18.4266 11.7339 18.2935 11.3307 18.1409C12.6497 17.3659 13.953 16.364 15.1585 15.1585C16.364 13.953 17.3659 12.6497 18.1409 11.3307C18.2975 11.7339 18.4305 12.1409 18.5362 12.5401C19.1194 14.7632 18.8258 16.5988 17.7104 17.7104Z" fill="white"/>
</svg>

<svg xmlns="http://www.w3.org/2000/svg" width="20" height="20" fill="#fff" xmlns:v="https://vecta.io/nano"><path d="M12.971 5.898H7.029v1.131h-.587V8.2h.587v1.209h-.587v1.17h.587v1.209h-.587v1.17h.587v1.131h5.937v-1.131h.587v-1.17h-.587v-1.209h.587v-1.17h-.587V8.2h.587V7.03h-.587V5.898h.004zm-1.174 4.689H8.204v-1.17h3.593v1.17zm0 2.344H8.204v-1.17h3.593v1.17zM8.204 8.243v-1.17h3.593v1.17H8.204zm11.463 4a13.52 13.52 0 0 0-.822-2.247c1.209-2.591 1.507-5.143.693-7.053A1.75 1.75 0 0 0 20 1.757 1.76 1.76 0 0 0 17.057.462c-1.91-.814-4.462-.517-7.053.693C9.256.802 8.501.528 7.757.333 5.115-.36 2.881.039 1.46 1.46S-.36 5.115.333 7.757a13.52 13.52 0 0 0 .822 2.247c-1.209 2.591-1.507 5.143-.693 7.053A1.75 1.75 0 0 0 0 18.243 1.76 1.76 0 0 0 1.757 20a1.76 1.76 0 0 0 1.186-.462c.724.309 1.538.458 2.415.458 1.432 0 3.029-.399 4.638-1.151a13.11 13.11 0 0 0 2.247.822c.845.223 1.652.333 2.403.333 1.589 0 2.932-.493 3.898-1.46 1.417-1.421 1.816-3.656 1.123-6.297zM18.239 1.174c.325 0 .587.262.587.587a.59.59 0 0 1-.587.587c-.325 0-.587-.262-.587-.587a.59.59 0 0 1 .587-.587zm-6.391.497c1.796-.603 3.428-.658 4.654-.172a1.87 1.87 0 0 0-.02.258 1.76 1.76 0 0 0 1.757 1.757 1.87 1.87 0 0 0 .258-.02c.489 1.229.431 2.857-.172 4.654l-.184.509c-.783-1.335-1.793-2.634-2.982-3.824s-2.489-2.2-3.824-2.982l.513-.18zm5.695 8.325c-.779 1.511-1.883 3.006-3.209 4.333s-2.823 2.43-4.334 3.209c-1.503-.775-2.986-1.867-4.325-3.209S3.241 11.507 2.466 10c.779-1.511 1.883-3.006 3.209-4.333s2.822-2.431 4.333-3.209c1.503.775 2.986 1.867 4.325 3.209s2.434 2.826 3.209 4.329zM1.464 7.46c-.583-2.223-.29-4.059.826-5.17.74-.74 1.796-1.115 3.072-1.115.646 0 1.35.098 2.102.294.399.106.806.239 1.209.395-1.319.775-2.622 1.777-3.828 2.982S2.638 7.354 1.863 8.673a10.97 10.97 0 0 1-.399-1.213zm.297 11.366c-.325 0-.587-.262-.587-.587s.262-.587.587-.587.587.262.587.587a.59.59 0 0 1-.587.587zm6.391-.497c-1.796.603-3.429.657-4.654.172a1.87 1.87 0 0 0 .02-.258 1.76 1.76 0 0 0-1.757-1.757 1.92 1.92 0 0 0-.258.02c-.489-1.229-.431-2.857.172-4.654l.184-.509c.783 1.335 1.793 2.634 2.982 3.824s2.489 2.2 3.824 2.982l-.513.18zm9.558-.618c-1.116 1.115-2.951 1.405-5.17.822a12.42 12.42 0 0 1-1.209-.391c1.319-.775 2.622-1.777 3.828-2.982s2.207-2.509 2.982-3.828a11.2 11.2 0 0 1 .395 1.209c.583 2.223.29 4.059-.826 5.17z"/></svg>
